X:1
T:Somebody Loves Me
C:George Gershwin
M:4/4
L:1/8
Q:1/4=126
K:F
A G A2 c2 AG | A4 G2 F2 | A G AB c2 dc | c6 z2 |
c B c2 A2 GA | G4 F2 EF | G A c2 A2 GF | F6 z2 |
A G AB c2 dc | d4 c2 Bc | A2 c2 A2 GF | G4 F2 EF |
G A c2 A2 GF | A4 G2 AG | F2 A2 c4 | F8 |]
